X:13
T:Lonesome Shepherd
M:4/4
L:1/8
K:Em
B/A/ B3-B4- | B8 | z8 | B/A/ B3-B4- | B8 | z8 |
zE EF FG GB | e/2d/2 e3- e2 z2 | d/2c/2 d3- d2 zA | B8 |
zE EF FG GB | e/2d/2 e3- e2 z2 | d/2c/2 d3- d2 zA | B6 zB |
AG G4 e2 | dc c4 A2 | GF F4 d2 | cB B4 B2 |
AG G4 g2 | fe e4 e2 | ed A4 A2 | {BA}HB8 |]

